src/lib/packages/icons/src/assets/filled/comment-lock.svg

<svg width="24" height="24" viewBox="0 0 24 24" fill="none" xmlns="http://www.w3.org/2000/svg">
<path d="M12 4C7.03 4 3 6.99998 3 12.001C3 14.121 3.72995 15.892 4.94995 17.212C4.79995 18.172 4.25992 19.272 3.16992 20.152C2.83992 20.432 3.02996 20.9819 3.45996 20.9919C4.87996 21.0419 7.06991 20.852 8.40991 19.422C9.50991 19.802 10.72 20.002 12 20.002C16.97 20.002 21 17.001 21 12.001C21 6.99998 16.97 4 12 4ZM15.5 14.875C15.5 15.875 15 16.375 14 16.375H10C9 16.375 8.5 15.875 8.5 14.875V12.625C8.5 11.815 8.845 11.351 9.5 11.196V9.75C9.5 8.372 10.621 7.25 12 7.25C13.379 7.25 14.5 8.372 14.5 9.75V11.196C15.155 11.35 15.5 11.815 15.5 12.625V14.875ZM13 9.75V11.125H11V9.75C11 9.199 11.448 8.75 12 8.75C12.552 8.75 13 9.199 13 9.75Z" fill="currentColor"/>
</svg>

<svg xmlns="http://www.w3.org/2000/svg" width="24" height="24" fill="none"><path fill="currentColor" d="M12 4c-4.97 0-9 3-9 8.001 0 2.12.73 3.891 1.95 5.211-.15.96-.69 2.06-1.78 2.94-.33.28-.14.83.29.84 1.42.05 3.61-.14 4.95-1.57 1.1.38 2.31.58 3.59.58 4.97 0 9-3.001 9-8.001C21 7 16.97 4 12 4Zm3.5 10.875c0 1-.5 1.5-1.5 1.5h-4c-1 0-1.5-.5-1.5-1.5v-2.25c0-.81.345-1.274 1-1.429V9.75c0-1.378 1.121-2.5 2.5-2.5s2.5 1.122 2.5 2.5v1.446c.655.154 1 .619 1 1.429v2.25ZM13 9.75v1.375h-2V9.75a1.001 1.001 0 0 1 2 0Z"/></svg>
